src/star.svg

<svg viewBox="0 0 16 16" fill="none" xmlns="http://www.w3.org/2000/svg"><path d="m8 3.68 1.07 2.69.26.63H12l-1.6 1.2-.5.38.12.61.48 2.44-1.9-1.43-.6-.45-.6.45-1.91 1.43L6 9.2l.13-.62-.53-.38L4 7h2.66l.26-.63L8 3.68ZM8 1 6 6H1l4 3-1 5 4-3 4 3-1-5 4-3h-5L8 1Z" fill="#111111"/></svg>

<svg viewBox="0 0 16 16" fill="none" xmlns="http://www.w3.org/2000/svg"><path d="M8 3.68L9.07 6.37L9.33 7H12L10.4 8.2L9.9 8.58L10.02 9.19L10.5 11.63L8.6 10.2L8 9.75L7.4 10.2L5.49 11.63L6 9.2L6.13 8.58L5.6 8.2L4 7H6.66L6.92 6.37L8 3.68ZM8 1L6 6H1L5 9L4 14L8 11L12 14L11 9L15 6H10L8 1Z" fill="#111111"/></svg>
